!!!id: bhatk3205a
!!!vol: 3
!!!page: 206
!!!antara: Muktamal mano man sarovar
!!!raag: bihag
!!!taal: teental
!!!tempo: madhyalaya
**kern
!!data: // >mP  -  P  >S'N/  -  N  N  N/  S'  -  S'  S'/  S'  R'  S'  S'/
==1
f#q
2g
4g
ccq
[4b
=
4b]
4b
4b
4b
=
2cc
4cc
4cc
=
4cc
4dd
4cc
4cc
!!data: // >NS'  S'  >R'S'  S'/  [N  -  P]  P/  P  -  N  N/  S'  >DN  %P  -/
==2
bq
4cc
4cc
ddq
4cc
4cc
=
2bH
4gh
4g
=
2g
4b
4b
=
4cc
aq
4b
2gS
!!data: // >PG  M  G  M/  P  -  N  N/  >NS'  G'  >R'N  S'/  [N  -  P]  -/
==3
gq
4e
4f
4e
4f
=
2g
4b
4b
=
bq
4cc
4ee
ddq
4b
4cc
=
2bH
2gh
!!data: // >DP  P  N  -/  S'  N  >DP  P/  P  -  >PG  M/  [G  -  S]  -/
==4
aq
4g
4g
2b
=
4cc
4b
aq
4g
4g
=
2g
gq
4e
4f
=
2eH
2ch
!!data: // >PG  M  G  M/  =  =  =  =/  =  =  =  =/  =  =  =  =/   
==5
gq
4e
4f
4e
4f
=
4ryy
4ryy
4ryy
4ryy
=
4ryy
4ryy
4ryy
4ryy
=
4ryy
4ryy
4ryy
4ryy
==
*-
